teeny/solid/area-chart.svg

<svg width="15" height="15" viewBox="0 0 15 15" fill="none" xmlns="http://www.w3.org/2000/svg">
<path d="M1 0H0V14.5C0 14.5 0 14.5 0 14.5V15H0.497812C0.498541 15 0.499271 15 0.500001 15H14.5C14.5007 15 14.5015 15 14.5022 15H15V14.501C15 14.5013 15 14.5007 15 14.501L15 2.5C15 2.28265 14.8596 2.09019 14.6526 2.02386C14.4456 1.95752 14.2195 2.03252 14.0931 2.20939L9.49016 8.65355L6.9 5.2C6.80264 5.07019 6.64833 4.99569 6.48613 5.0002C6.32392 5.0047 6.17399 5.08764 6.08398 5.22265L1 12.8486V0Z" fill="black"/>
</svg>

<svg viewBox="0 0 15 15" xmlns="http://www.w3.org/2000/svg"><path d="M1 0H0v14.5s0 0 0 0v.5h.49s0 0 0 0h13.99s0 0 0 0h.49v-.5s0-.01 0 0V2.49c0-.22-.15-.41-.35-.48 -.21-.07-.44 0-.56.18L9.45 8.63l-2.6-3.46c-.1-.13-.26-.21-.42-.2 -.17 0-.32.08-.41.22l-5.09 7.62V-.04Z"/></svg>
